X: 36
T: Drowsy Maggie
Z: tziguk
S: https://thesession.org/tunes/27#setting53477
R: reel
M: 4/4
L: 1/8
K: Edor
E2BE dEBE|E2BE AFDF|E2BE dEBE|BABc dAFD|
E2BE dEBE|E2BE AFDF|E2BE dEBE|BABc dAFA||
d2fd cdec|defd faaf|defd cdec|~B3c dAFA|
d2fd cdec|defdfa~a2|bgaf gfed|~B3c dAFD||

%-------------------- TUNE SEPARATOR --------------------%

